X: 60
M: C|
L: 1/16
K: D
ag |\
f3ad3a fd3a3d | ce3A3e c3eA2 ag | fa3d3a fd3a3d | B3AB3c dD3D2 ag |
f3ad3a fd3a3d | ce3A3c c3eA2 ag | fd3g3e a3fb3g | f3ae3f dD3D2 H|]

